X:1
T:Title
%%score ( 1 2 ) { 3 | 4 }
L:1/8
Q:1/4=115
M:4/4
K:F
V:1 treble nm="Grand Piano, Unnamed-000"
V:2 treble 
V:3 bass nm="Choir Pad, Unnamed-001"
V:4 bass 
V:1
 [CA]2 [A,F]2 [B,C]2 [B,C]2 | z2 F2 z4 | z4 z2 F2 | [EB]2 [FA]2 [FA]2 [EG]2 | %4
w: By~William~J.~Sparrow\-Simpson,~1887~ * * *||||
 z E [DB]2 [CB]2 A-[_EA] | z2 d2 z4 | z2 B2 .A2 F2 | z2 E2 z4 | z8 |] %9
w: |||||
V:2
 x8 | [A,C]2 A,=B, [CF]2 [CE]2 | [CF]2 [A,A]2 DECD | x8 | F2 z2 z2 .F2 | [DG]2 DE [Fd]2 [_Ec]2 | %6
 [Dc]2 ED ^C-[CG]A,=B, | [CF]2 CB, [A,F]4- | [A,F]4 z4 |] %9
V:3
 F,2 F,2 G,2 G,2 | F,2 F,G, A,2 G,2 | F,2 F,2 F,G, A,2 | B,2 C2 C4 | A,2 B,A, G,2 A,2 | %5
 B,2 F,2 A,2 F,2 | F,2 G,F, E,2 F,G, | A,2 G,2 F,4- | F,4 z4 |] %9
V:4
 F,,2 z2 F,2 E,2 | z2 D,2 C,2 C,B,, | A,,2 F,,2 B,,2 A,,2 | G,,2 F,,2 C,4 | D,2 G,F, E,2 F,2 | %5
 B,,2 B,,2 A,,2 A,,2 | B,,2 G,,2 A,,2 D,2 | C,2 C,2 F,,4- | F,,4 z4 |] %9

